X:1
T:Winterreise, D.911
T:Muth
T:(Ursprünglich in A-, später in G-moll)
T:Winterreise, D.911
T:22. Muth
T:Franz Schubert
T:Wilhelm Müller
T:Creative Commons copyright waiver (CC0 1.0 Universal) 
T:Creative Commons copyright waiver (CC0 1.0 Universal) 
T:Creative Commons copyright waiver (CC0 1.0 Universal) 
C:Franz Schubert
Z:Wilhelm Müller
Z:Creative Commons copyright waiver (CC0 1.0 Universal)
Z:
%%score 1 { ( 2 3 ) | 4 }
L:1/8
Q:1/4=90
M:2/4
K:C
V:1 treble nm="Singstimme" snm="Sing."
V:2 treble nm="Pianoforte" snm="Pno."
V:3 treble 
V:4 bass 
V:1
"^Ziemlich geschwind, kräftig" z4 | z4 | z4 | z4 | E A/B/ c2- | c B A B | E2 z2 | %7
w: ||||Fliegt der _ Schnee|_ mir in's Ge-|sicht,|
w: ||||Hö- re _ nicht|_ was es mir|sagt,|
 B3/2 ^c/ B/A/ ^G/^F/ | ^G2 E2 | z4 | z4 | E A/B/ c2- | c A d c | B2 z2 | A3/2 ^c/ ^f/e/ c/A/ | %15
w: schüttl' ich ihn _ her- *|un- ter.|||Wenn mein Herz _|_ im Bu- sen|spricht,|sing' ich hell _ und _|
w: ha- be kei- * ne _|Oh- ren,|||füh- le nicht _|_ was es mir|klagt,|Kla- gen ist _ für _|
 B2 A2 | z4 | z4 :|[K:A]!mf! B3/2 B/ B B | c A B2 | B/e/ ^d/c/ B/A/ G/F/ | G2 E2 | z4 | z4 | %24
w: mun- ter|||Lus- tig in die|Welt hin- ein|ge- * gen _ Wind _ und _|Wet- ter!|||
w: Tho- ren.|||||||||
 B3/2 B/ B c/d/ | cA B2 | A3/2 c/ f/e/ c/A/ | B2 A2 | z4 | z4 | B3/2 B/ B A/B/ | =c A B2 | %32
w: will kein Gott auf _|Er- den sein,|sind wir sel- * ber _|Göt- ter!|||Lus- tig in die _|Welt hin- ein|
w: ||||||||
 =c3/2 e/ d/=f/ e/d/ | =c2 =C2 | z4 | z4 | B3/2 B/ B ^c/d/ | cA B2 | A c/e/ a/e/ c/A/ | B2 A2 | %40
w: ge- gen Wind _ und _|Wet- ter!|||will kein Gott auf _|Er- den sein,|sind wir _ sel- * ber _|Göt- ter!|
w: ||||||||
 z4 | z4 ||[K:C] z4 | z4 | z4 | z4 |] %46
w: ||||||
w: ||||||
V:2
!f! E (A/B/ !>!c2-) | c (d/e/ !>!f2) | [EAce][Bd]/[Ac]/ [AB][E^GBe] | !>![CEA]2 !>!A,2 | %4
!p! .[CE] z z (A/B/ | cBA[FB]) | [B,E]4 | [B,EB]>[B,EB][B,^D^FB][B,DFB] | [B,E^G]2 [B,E]2 | %9
!f! (B/e/^d/^c/) (B/A/)(^G/^F/) | !>!^G2 !>!E2 |!p! .[=CE] z z (A/B/ | cAd[Ac]) | [^GB]4 | %14
 [EAe]>[EAe][EA^c][EA] | [E^GB]2 [EA]2 |!f! (EA/^c/ ^f/e/c/A/) | [^GBe^g]2 [A^cea]2 :| %18
[K:A]!mf! [EGB]>e e2- | [ce]e e2 | [EBe]>[EBe][FB^d][FBd] | [EBe]2 E2 | %22
!f! [Bb]>[cc'][Bb][cc']/[^d^d']/ | !>![ee']2 !>![Ee]2 |!mf! [EGB]>e e2- | [ce]e e2 | %26
 [EAe]>[EAe][EAc][EA] | [EGB]2 [EA]2 |!f! (EA/c/ f/e/c/A/) | !>![GBeg]2 !>![Acea]2 | %30
!mf! [egb]>e' e'2- | e'e' [gbe']2 | [E=G=ce]>[EGce][GBd=g][Bdgb] | [=ce=g=c']2 c2 | %34
!f!!8va(! [=g=g']>[aa'] [gg'][aa']/[bb']/!8va)! | [=c=c']2 [=Cc]2 |!mf! [EGB]>e e2- | [^ce]e e2 | %38
 [EAe]>[EAe][EAc][EA] | [EGB]2 [EA]2 |!f! Ac/e/ a/e/a/c'/ | [egbe']2 [Acea]2 || %42
[K:C]!f! E (A/B/ !>!c2-) | c (d/e/ !>!f2) | [EAce][Bd]/[Ac]/ [AB][E^GBe] | !>![CEA]2 !>!A,2 |] %46
V:3
 .C z z .[CE] |.[DF] z z .[FAd] | x4 | x4 | x4 | x4 | x4 | x4 | x4 | E2 ^DD | E2 E2 | x4 | x4 | %13
 x4 | x4 | x4 | x4 | x4 :|[K:A] x2 z .[EGB] | .[EA].[EA] !>![EGB]2 | x4 | x4 | x4 | x4 | %24
 x3/2 z x/ .[EBd] | .[EA].[EA] [EGB]2 | x4 | x4 | x4 | x4 | x2 z .[egb] | .[ea=c'].[ea] e2 | x4 | %33
 x4 |!8va(! x4!8va)! | x4 | x3/2 z x/ .[EBd] | .[EA].[EA] [EGB]2 | x4 | x4 | x4 | x4 || %42
[K:C] .=C z z .[CE] |.[DF] z z .[FAd] | x4 | x4 |] %46
V:4
 .[A,,E,] (A,/B,/ C) .[A,,E,A,] |.[A,,F,A,] (D/E/ F) .[A,,F,A,] | .[A,,E,A,].C, .E,.[E,,E,] | %3
 [A,,E,A,]2 A,,2 | .[A,,E,] z z (A,/B,/ | CB,A,[D,B,]) | [E,^G,]4 | %7
 [B,,^G,]>[B,,G,][B,,A,][B,,A,] | [E,^G,]2 [E,G,]2 | [B,,^G,]2 [B,,^F,][B,,A,] | %10
 [E,^G,]2 [E,,E,]2 | .[A,,E,] z z (A,/B,/ | CA,D[^D,C]) | [E,B,]4 | %14
 [^C,A,^C]>[E,A,C][E,A,C][E,A,C] | [E,D]2 [A,^C]2 | [^C,E,A,^C]>[E,A,C][E,A,C][E,A,C] | %17
 [E,B,DE]2 [A,^CE]2 :|[K:A] [E,B,]2 z .[E,B,] | .[A,C].[C,A,] [E,B,]2 | %20
 [B,,G,B,]>[B,,G,B,][B,,A,B,][B,,A,B,] | [E,G,B,]2 E,2 | [B,,E,G,B,]2 [B,,F,A,B,][B,,F,A,B,] | %23
 [E,G,B,]2 E,2 | [E,B,]2 z .[B,D] | .[A,C].[C,A,] [E,B,]2 | [C,A,C]>[E,A,C][E,A,C][E,A,C] | %27
 [E,D]2 [A,C]2 | [C,E,A,C]>[E,A,C][E,A,C][E,A,C] | [E,B,DE]2 [A,CE]2 | [E,B,]2 z .[E,B,] | %31
 .[A,=C].[=C,A,] [E,B,]2 | [=C,E,=G,=C]>[C,E,G,C][C,=F,G,B,][C,F,G,D] | [=C,E,=G,=C]2 [C,E,G,C]2 | %34
 [=G,,E,=G,]2 [G,,D,=F,G,][G,,D,F,G,] | [=C,E,=G,]2 C,2 | [E,B,]2 z .[B,D] | %37
 .[A,^C].[C,A,] [E,B,]2 | [C,A,C]>[C,A,C][E,A,C][E,A,C] | [E,D]2 [A,C]2 | %40
 [C,E,A,C]>[C,E,A,C][E,A,C][E,A,C] | [E,B,DE]2 [A,CE]2 ||[K:C] .[A,,E,] (A,/B,/ C) .[A,,E,A,] | %43
.[A,,F,A,] (D/E/ F) .[A,,F,A,] | .[A,,E,A,].C,.E, .[E,,E,] | [A,,E,A,]2 A,,2 |] %46

